; generated by PrusaSlicer 2.3.0+linux-x64 on 2022-03-01 at 17:27:35 UTC


;
;

;
;
; 

; external perimeters extrusion width = 0.60mm
; perimeters extrusion width = 0.50mm
; infill extrusion width = 0.50mm
; solid infill extrusion width = 0.50mm
; top infill extrusion width = 0.45mm
; first layer extrusion width = 0.42mm

M73 P0 R30
M73 Q0 S30
M107
M190 S50 ; set bed temperature and wait for it to be reached
M104 S240 ; set temperature
;TYPE:Custom
START_PRINT EXTRUDER_TEMP=240 BED_EXTRUDER=50
M109 S240 ; set temperature and wait for it to be reached
G21 ; set units to millimeters
G90 ; use absolute coordinates
M83 ; use relative distances for extrusion
;LAYER_CHANGE
;Z:0.2
;HEIGHT:0.2
G1 Z0.200 F10800.000
G1 E-2.00000 F2100.000
G1 X38.773 Y134.123 F10800.000
G1 E2.00000 F1500.000
M204 S1000
;TYPE:Skirt
;WIDTH:0.42
G1 F1591.176
G1 X39.320 Y133.218 E0.02983
G1 X39.780 Y132.784 E0.01786
G1 X40.314 Y132.453 E0.01773
G1 X40.908 Y132.234 E0.01786
G1 X41.534 Y132.140 E0.01786
G1 X61.692 Y132.136 E0.56883
G1 X62.265 Y132.190 E0.01626
G1 X62.820 Y132.348 E0.01626
G1 X63.335 Y132.605 E0.01626
G1 X63.795 Y132.952 E0.01626
G1 X64.184 Y133.377 E0.01626
G1 X64.488 Y133.867 E0.01626
G1 X64.697 Y134.404 E0.01626
G1 X64.805 Y134.974 E0.01638
G1 X64.817 Y155.372 E0.57560
G1 X64.603 Y156.407 E0.02983
G1 X64.055 Y157.316 E0.02996
G1 X63.574 Y157.766 E0.01859
G1 X63.009 Y158.106 E0.01859
G1 X62.381 Y158.320 E0.01872
G1 X61.727 Y158.398 E0.01859
G1 X41.578 Y158.396 E0.56858
G1 X40.543 Y158.182 E0.02983
G1 X39.638 Y157.635 E0.02983
G1 X39.188 Y157.153 E0.01859
G1 X38.849 Y156.589 E0.01859
G1 X38.634 Y155.961 E0.01872
G1 X38.556 Y155.307 E0.01859
G1 X38.558 Y135.158 E0.56858
G1 X38.761 Y134.181 E0.02814
G1 X39.126 Y134.257 F10800.000
G1 F1591.176
G1 X39.618 Y133.450 E0.02667
G1 X40.025 Y133.071 E0.01571
G1 X40.497 Y132.783 E0.01559
G1 X41.021 Y132.595 E0.01571
G1 X41.572 Y132.515 E0.01571
G1 X61.691 Y132.513 E0.56775
G1 X62.693 Y132.703 E0.02876
G1 X63.553 Y133.241 E0.02864
G1 X64.160 Y134.055 E0.02864
G1 X64.432 Y135.037 E0.02876
G1 X64.440 Y155.353 E0.57330
G1 X64.248 Y156.280 E0.02671
G1 X63.757 Y157.084 E0.02659
G1 X63.333 Y157.476 E0.01628
G1 X62.837 Y157.770 E0.01628
G1 X62.290 Y157.954 E0.01628
G1 X61.717 Y158.021 E0.01628
G1 X41.601 Y158.020 E0.56764
G1 X40.674 Y157.828 E0.02671
G1 X39.870 Y157.337 E0.02659
G1 X39.479 Y156.913 E0.01628
G1 X39.184 Y156.416 E0.01628
G1 X39.000 Y155.870 E0.01628
G1 X38.933 Y155.296 E0.01628
G1 X38.934 Y135.181 E0.56764
G1 X39.113 Y134.316 E0.02494
;WIPE_START
G1 F8640.000
G1 X39.618 Y133.450 E-0.23131
G1 X40.025 Y133.071 E-0.12853
G1 X40.497 Y132.783 E-0.12759
G1 X41.021 Y132.595 E-0.12853
G1 X41.572 Y132.515 E-0.12853
G1 X46.576 Y132.515 E-1.15550
;WIPE_END
G1 E-0.10000 F2100.000
G1 X39.113 Y134.316 F10800.000
G1 X39.113 Y134.316
G1 X40.679 Y133.114
G1 E2.00000 F1500.000
G1 F1591.176
G1 X41.602 Y132.892 E0.02680
G1 X61.691 Y132.890 E0.56688
G1 X62.558 Y133.055 E0.02490
G1 X63.307 Y133.528 E0.02500
G1 X63.830 Y134.238 E0.02490
G1 X64.058 Y135.091 E0.02490
G1 X64.064 Y155.332 E0.57117
G1 X63.896 Y156.145 E0.02342
G1 X63.460 Y156.851 E0.02342
G1 X63.094 Y157.183 E0.01395
G1 X62.668 Y157.433 E0.01395
G1 X62.199 Y157.589 E0.01395
G1 X61.707 Y157.644 E0.01395
G1 X41.619 Y157.643 E0.56688
G1 X40.810 Y157.476 E0.02331
G1 X40.104 Y157.040 E0.02342
G1 X39.771 Y156.674 E0.01395
G1 X39.522 Y156.247 E0.01395
G1 X39.366 Y155.778 E0.01395
G1 X39.310 Y155.287 E0.01395
G1 X39.311 Y135.199 E0.56688
G1 X39.478 Y134.389 E0.02331
G1 X39.915 Y133.683 E0.02342
G1 X40.631 Y133.150 E0.02521
; printing object Shape-Box id:0 copy 0
;WIPE_START
G1 F8640.000
G1 X41.602 Y132.892 E-0.23208
G1 X48.826 Y132.891 E-1.66792
;WIPE_END
G1 E-0.10000 F2100.000
G1 X40.631 Y133.150 F10800.000
G1 X40.631 Y133.150
G1 X42.474 Y136.054
G1 E2.00000 F1500.000
;TYPE:Perimeter
G1 F1591.176
G1 X60.900 Y136.054 E0.51996
G1 X60.900 Y154.480 E0.51996
G1 X42.474 Y154.480 E0.51996
G1 X42.474 Y136.114 E0.51826
G1 X42.097 Y135.677 F10800.000
;TYPE:External perimeter
G1 F1591.176
G1 X61.277 Y135.677 E0.54124
G1 X61.277 Y154.857 E0.54124
M73 Q1 S30
G1 X42.097 Y154.857 E0.54124
M73 P1 R30
G1 X42.097 Y135.737 E0.53954
G1 X42.484 Y135.781 F10800.000
G1 E-2.00000 F2100.000
G1 X60.787 Y136.934 F10800.000
G1 E2.00000 F1500.000
;TYPE:Solid infill
;WIDTH:0.422206
G1 F1581.920
G1 X60.190 Y136.337 E0.02397
G1 X59.653 Y136.337 E0.01522
G1 X60.617 Y137.301 E0.03869
G1 X60.617 Y137.837 E0.01522
G1 X59.117 Y136.337 E0.06023
G1 X58.581 Y136.337 E0.01522
G1 X60.617 Y138.374 E0.08176
G1 X60.617 Y138.910 E0.01522
G1 X58.044 Y136.337 E0.10329
G1 X57.508 Y136.337 E0.01522
G1 X60.617 Y139.446 E0.12482
G1 X60.617 Y139.983 E0.01522
G1 X56.971 Y136.337 E0.14635
G1 X56.435 Y136.337 E0.01522
G1 X60.617 Y140.519 E0.16788
G1 X60.617 Y141.056 E0.01522
G1 X55.899 Y136.337 E0.18941
G1 X55.362 Y136.337 E0.01522
G1 X60.617 Y141.592 E0.21095
G1 X60.617 Y142.128 E0.01522
G1 X54.826 Y136.337 E0.23248
G1 X54.290 Y136.337 E0.01522
G1 X60.617 Y142.665 E0.25401
G1 X60.617 Y143.201 E0.01522
G1 X53.753 Y136.337 E0.27554
G1 X53.217 Y136.337 E0.01522
G1 X60.617 Y143.738 E0.29707
G1 X60.617 Y144.274 E0.01522
G1 X52.680 Y136.337 E0.31860
G1 X52.144 Y136.337 E0.01522
G1 X60.617 Y144.810 E0.34013
G1 X60.617 Y145.347 E0.01522
G1 X51.608 Y136.337 E0.36166
G1 X51.071 Y136.337 E0.01522
G1 X60.617 Y145.883 E0.38320
G1 X60.617 Y146.420 E0.01522
G1 X50.535 Y136.337 E0.40473
G1 X49.998 Y136.337 E0.01522
G1 X60.617 Y146.956 E0.42626
G1 X60.617 Y147.492 E0.01522
G1 X49.462 Y136.337 E0.44779
G1 X48.926 Y136.337 E0.01522
G1 X60.617 Y148.029 E0.46932
G1 X60.617 Y148.565 E0.01522
G1 X48.389 Y136.337 E0.49085
G1 X47.853 Y136.337 E0.01522
G1 X60.617 Y149.102 E0.51238
G1 X60.617 Y149.638 E0.01522
G1 X47.316 Y136.337 E0.53391
G1 X46.780 Y136.337 E0.01522
G1 X60.617 Y150.174 E0.55545
G1 X60.617 Y150.711 E0.01522
G1 X46.244 Y136.337 E0.57698
G1 X45.707 Y136.337 E0.01522
G1 X60.617 Y151.247 E0.59851
G1 X60.617 Y151.783 E0.01522
G1 X45.171 Y136.337 E0.62004
G1 X44.634 Y136.337 E0.01522
G1 X60.617 Y152.320 E0.64157
G1 X60.617 Y152.856 E0.01522
G1 X44.098 Y136.337 E0.66310
G1 X43.562 Y136.337 E0.01522
G1 X60.617 Y153.393 E0.68463
M73 Q2 S30
G1 X60.617 Y153.929 E0.01522
G1 X43.025 Y136.337 E0.70616
M73 P2 R30
G1 X42.757 Y136.337 E0.00761
G1 X42.757 Y136.605 E0.00761
G1 X60.349 Y154.197 E0.70616
G1 X59.813 Y154.197 E0.01522
G1 X42.757 Y137.142 E0.68463
G1 X42.757 Y137.678 E0.01522
G1 X59.276 Y154.197 E0.66310
G1 X58.740 Y154.197 E0.01522
G1 X42.757 Y138.214 E0.64157
G1 X42.757 Y138.751 E0.01522
G1 X58.204 Y154.197 E0.62004
G1 X57.667 Y154.197 E0.01522
G1 X42.757 Y139.287 E0.59850
G1 X42.757 Y139.824 E0.01522
G1 X57.131 Y154.197 E0.57697
G1 X56.594 Y154.197 E0.01522
G1 X42.757 Y140.360 E0.55544
G1 X42.757 Y140.896 E0.01522
G1 X56.058 Y154.197 E0.53391
M73 P2 R29
G1 X55.522 Y154.197 E0.01522
G1 X42.757 Y141.433 E0.51238
G1 X42.757 Y141.969 E0.01522
G1 X54.985 Y154.197 E0.49085
M73 Q2 S29
G1 X54.449 Y154.197 E0.01522
G1 X42.757 Y142.506 E0.46932
G1 X42.757 Y143.042 E0.01522
G1 X53.912 Y154.197 E0.44778
G1 X53.376 Y154.197 E0.01522
G1 X42.757 Y143.578 E0.42625
G1 X42.757 Y144.115 E0.01522
G1 X52.840 Y154.197 E0.40472
G1 X52.303 Y154.197 E0.01522
G1 X42.757 Y144.651 E0.38319
G1 X42.757 Y145.187 E0.01522
G1 X51.767 Y154.197 E0.36166
G1 X51.231 Y154.197 E0.01522
G1 X42.757 Y145.724 E0.34013
G1 X42.757 Y146.260 E0.01522
G1 X50.694 Y154.197 E0.31860
G1 X50.158 Y154.197 E0.01522
G1 X42.757 Y146.797 E0.29707
G1 X42.757 Y147.333 E0.01522
G1 X49.621 Y154.197 E0.27553
G1 X49.085 Y154.197 E0.01522
G1 X42.757 Y147.869 E0.25400
G1 X42.757 Y148.406 E0.01522
G1 X48.549 Y154.197 E0.23247
G1 X48.012 Y154.197 E0.01522
G1 X42.757 Y148.942 E0.21094
G1 X42.757 Y149.479 E0.01522
G1 X47.476 Y154.197 E0.18941
G1 X46.939 Y154.197 E0.01522
G1 X42.757 Y150.015 E0.16788
G1 X42.757 Y150.551 E0.01522
G1 X46.403 Y154.197 E0.14635
G1 X45.867 Y154.197 E0.01522
G1 X42.757 Y151.088 E0.12482
G1 X42.757 Y151.624 E0.01522
G1 X45.330 Y154.197 E0.10328
G1 X44.794 Y154.197 E0.01522
G1 X42.757 Y152.161 E0.08175
M73 Q3 S29
G1 X42.757 Y152.697 E0.01522
G1 X44.257 Y154.197 E0.06022
G1 X43.721 Y154.197 E0.01522
G1 X42.757 Y153.233 E0.03869
G1 X42.757 Y153.770 E0.01522
G1 X43.354 Y154.367 E0.02397
; stop printing object Shape-Box id:0 copy 0
;LAYER_CHANGE
;Z:0.5
;HEIGHT:0.3
G1 Z0.200 F10800.000
G1 E-2.00000 F2100.000
G1 X126.388 Y52.933 F10800.000
G1 E2.00000 F1500.000
M204 S1000
;TYPE:Skirt
;WIDTH:0.42
G1 F1591.176
G1 X126.935 Y52.029 E0.02983
G1 X127.395 Y51.594 E0.01786
G1 X127.930 Y51.264 E0.01773
G1 X128.523 Y51.045 E0.01786
G1 X129.149 Y50.950 E0.01786
G1 X149.307 Y50.947 E0.56883
G1 X149.881 Y51.000 E0.01626
G1 X150.435 Y51.158 E0.01626
G1 X150.951 Y51.415 E0.01626
G1 X151.411 Y51.762 E0.01626
G1 X151.799 Y52.188 E0.01626
G1 X152.103 Y52.677 E0.01626
G1 X152.312 Y53.214 E0.01626
G1 X152.420 Y53.785 E0.01638
G1 X152.432 Y74.183 E0.57560
G1 X152.219 Y75.218 E0.02983
G1 X151.670 Y76.127 E0.02996
G1 X151.189 Y76.577 E0.01859
G1 X150.624 Y76.916 E0.01859
G1 X149.997 Y77.131 E0.01872
G1 X149.342 Y77.209 E0.01859
G1 X129.193 Y77.207 E0.56858
G1 X128.158 Y76.992 E0.02983
G1 X127.253 Y76.445 E0.02983
G1 X126.803 Y75.964 E0.01859
G1 X126.464 Y75.399 E0.01859
G1 X126.249 Y74.772 E0.01872
G1 X126.171 Y74.117 E0.01859
G1 X126.173 Y53.968 E0.56858
G1 X126.376 Y52.992 E0.02814
G1 X126.741 Y53.068 F10800.000
G1 F1591.176
G1 X127.233 Y52.261 E0.02667
G1 X127.640 Y51.882 E0.01571
G1 X128.112 Y51.594 E0.01559
G1 X128.636 Y51.405 E0.01571
G1 X129.187 Y51.326 E0.01571
G1 X149.307 Y51.324 E0.56775
G1 X150.308 Y51.514 E0.02876
G1 X151.168 Y52.052 E0.02864
G1 X151.775 Y52.865 E0.02864
G1 X152.047 Y53.848 E0.02876
G1 X152.055 Y74.164 E0.57330
G1 X151.864 Y75.091 E0.02671
G1 X151.372 Y75.895 E0.02659
G1 X150.948 Y76.286 E0.01628
G1 X150.452 Y76.581 E0.01628
G1 X149.905 Y76.765 E0.01628
G1 X149.332 Y76.832 E0.01628
G1 X129.216 Y76.831 E0.56764
G1 X128.290 Y76.639 E0.02671
G1 X127.485 Y76.147 E0.02659
G1 X127.094 Y75.723 E0.01628
G1 X126.800 Y75.227 E0.01628
G1 X126.615 Y74.680 E0.01628
G1 X126.548 Y74.107 E0.01628
G1 X126.550 Y53.992 E0.56764
G1 X126.729 Y53.126 E0.02494
;WIPE_START
G1 F8640.000
G1 X127.233 Y52.261 E-0.23131
G1 X127.640 Y51.882 E-0.12853
G1 X128.112 Y51.594 E-0.12759
G1 X128.636 Y51.405 E-0.12853
G1 X129.187 Y51.326 E-0.12853
G1 X134.191 Y51.325 E-1.15550
;WIPE_END
G1 E-0.10000 F2100.000
G1 X126.729 Y53.126 F10800.000
G1 X126.729 Y53.126
G1 X128.294 Y51.925
G1 E2.00000 F1500.000
G1 F1591.176
G1 X129.218 Y51.702 E0.02680
G1 X149.306 Y51.701 E0.56688
G1 X150.173 Y51.866 E0.02490
G1 X150.923 Y52.338 E0.02500
G1 X151.445 Y53.049 E0.02490
G1 X151.673 Y53.902 E0.02490
G1 X151.679 Y74.142 E0.57117
G1 X151.512 Y74.955 E0.02342
G1 X151.075 Y75.661 E0.02342
G1 X150.709 Y75.994 E0.01395
G1 X150.283 Y76.243 E0.01395
G1 X149.814 Y76.399 E0.01395
G1 X149.323 Y76.455 E0.01395
G1 X129.234 Y76.454 E0.56688
G1 X128.425 Y76.287 E0.02331
G1 X127.719 Y75.851 E0.02342
G1 X127.387 Y75.485 E0.01395
G1 X127.137 Y75.058 E0.01395
G1 X126.981 Y74.589 E0.01395
G1 X126.925 Y74.098 E0.01395
G1 X126.926 Y54.009 E0.56688
G1 X127.093 Y53.200 E0.02331
G1 X127.530 Y52.494 E0.02342
G1 X128.246 Y51.961 E0.02521
; printing object Shape-Box id:0 copy 0
;WIPE_START
G1 F8640.000
G1 X129.218 Y51.702 E-0.23208
G1 X136.441 Y51.702 E-1.66792
;WIPE_END
G1 E-0.10000 F2100.000
G1 X128.246 Y51.961 F10800.000
G1 X128.246 Y51.961
G1 X130.090 Y54.865
G1 E2.00000 F1500.000
;TYPE:Perimeter
G1 F1591.176
G1 X148.515 Y54.865 E0.51996
G1 X148.515 Y73.291 E0.51996
G1 X130.090 Y73.291 E0.51996
G1 X130.090 Y54.925 E0.51826
G1 X129.712 Y54.488 F10800.000
;TYPE:External perimeter
G1 F1591.176
G1 X148.892 Y54.488 E0.54124
G1 X148.892 Y73.668 E0.54124
G1 X129.712 Y73.668 E0.54124
M73 P1 R30
M73 Q1 S30
G1 X129.712 Y54.548 E0.53954
G1 X130.099 Y54.591 F10800.000
G1 E-2.00000 F2100.000
G1 X148.402 Y55.745 F10800.000
G1 E2.00000 F1500.000
;TYPE:Solid infill
;WIDTH:0.422206
G1 F1581.920
G1 X147.805 Y55.148 E0.02397
G1 X147.269 Y55.148 E0.01522
G1 X148.233 Y56.112 E0.03869
G1 X148.233 Y56.648 E0.01522
G1 X146.732 Y55.148 E0.06023
G1 X146.196 Y55.148 E0.01522
G1 X148.233 Y57.184 E0.08176
G1 X148.233 Y57.721 E0.01522
G1 X145.659 Y55.148 E0.10329
G1 X145.123 Y55.148 E0.01522
G1 X148.233 Y58.257 E0.12482
G1 X148.233 Y58.794 E0.01522
G1 X144.587 Y55.148 E0.14635
G1 X144.050 Y55.148 E0.01522
G1 X148.233 Y59.330 E0.16788
G1 X148.233 Y59.866 E0.01522
G1 X143.514 Y55.148 E0.18941
G1 X142.977 Y55.148 E0.01522
G1 X148.233 Y60.403 E0.21095
G1 X148.233 Y60.939 E0.01522
G1 X142.441 Y55.148 E0.23248
G1 X141.905 Y55.148 E0.01522
G1 X148.233 Y61.476 E0.25401
G1 X148.233 Y62.012 E0.01522
G1 X141.368 Y55.148 E0.27554
G1 X140.832 Y55.148 E0.01522
G1 X148.233 Y62.548 E0.29707
G1 X148.233 Y63.085 E0.01522
G1 X140.296 Y55.148 E0.31860
G1 X139.759 Y55.148 E0.01522
G1 X148.233 Y63.621 E0.34013
G1 X148.233 Y64.157 E0.01522
G1 X139.223 Y55.148 E0.36166
G1 X138.686 Y55.148 E0.01522
G1 X148.233 Y64.694 E0.38320
G1 X148.233 Y65.230 E0.01522
G1 X138.150 Y55.148 E0.40473
G1 X137.614 Y55.148 E0.01522
G1 X148.233 Y65.767 E0.42626
G1 X148.233 Y66.303 E0.01522
G1 X137.077 Y55.148 E0.44779
G1 X136.541 Y55.148 E0.01522
G1 X148.233 Y66.839 E0.46932
G1 X148.233 Y67.376 E0.01522
G1 X136.004 Y55.148 E0.49085
G1 X135.468 Y55.148 E0.01522
G1 X148.233 Y67.912 E0.51238
G1 X148.233 Y68.449 E0.01522
G1 X134.932 Y55.148 E0.53391
G1 X134.395 Y55.148 E0.01522
G1 X148.233 Y68.985 E0.55545
G1 X148.233 Y69.521 E0.01522
G1 X133.859 Y55.148 E0.57698
G1 X133.322 Y55.148 E0.01522
G1 X148.233 Y70.058 E0.59851
G1 X148.233 Y70.594 E0.01522
G1 X132.786 Y55.148 E0.62004
G1 X132.250 Y55.148 E0.01522
G1 X148.233 Y71.131 E0.64157
G1 X148.233 Y71.667 E0.01522
G1 X131.713 Y55.148 E0.66310
G1 X131.177 Y55.148 E0.01522
G1 X148.233 Y72.203 E0.68463
M73 Q2 S30
G1 X148.233 Y72.740 E0.01522
G1 X130.640 Y55.148 E0.70616
M73 P2 R30
G1 X130.372 Y55.148 E0.00761
G1 X130.372 Y55.416 E0.00761
G1 X147.964 Y73.008 E0.70616
G1 X147.428 Y73.008 E0.01522
G1 X130.372 Y55.952 E0.68463
G1 X130.372 Y56.489 E0.01522
G1 X146.892 Y73.008 E0.66310
G1 X146.355 Y73.008 E0.01522
G1 X130.372 Y57.025 E0.64157
G1 X130.372 Y57.561 E0.01522
G1 X145.819 Y73.008 E0.62004
G1 X145.282 Y73.008 E0.01522
G1 X130.372 Y58.098 E0.59850
G1 X130.372 Y58.634 E0.01522
G1 X144.746 Y73.008 E0.57697
G1 X144.210 Y73.008 E0.01522
G1 X130.372 Y59.171 E0.55544
G1 X130.372 Y59.707 E0.01522
G1 X143.673 Y73.008 E0.53391
M73 P2 R29
G1 X143.137 Y73.008 E0.01522
G1 X130.372 Y60.243 E0.51238
G1 X130.372 Y60.780 E0.01522
G1 X142.600 Y73.008 E0.49085
M73 Q2 S29
G1 X142.064 Y73.008 E0.01522
G1 X130.372 Y61.316 E0.46932
G1 X130.372 Y61.853 E0.01522
G1 X141.528 Y73.008 E0.44778
G1 X140.991 Y73.008 E0.01522
G1 X130.372 Y62.389 E0.42625
G1 X130.372 Y62.925 E0.01522
G1 X140.455 Y73.008 E0.40472
G1 X139.918 Y73.008 E0.01522
G1 X130.372 Y63.462 E0.38319
G1 X130.372 Y63.998 E0.01522
G1 X139.382 Y73.008 E0.36166
G1 X138.846 Y73.008 E0.01522
G1 X130.372 Y64.535 E0.34013
G1 X130.372 Y65.071 E0.01522
G1 X138.309 Y73.008 E0.31860
G1 X137.773 Y73.008 E0.01522
G1 X130.372 Y65.607 E0.29707
G1 X130.372 Y66.144 E0.01522
G1 X137.237 Y73.008 E0.27553
G1 X136.700 Y73.008 E0.01522
G1 X130.372 Y66.680 E0.25400
G1 X130.372 Y67.216 E0.01522
G1 X136.164 Y73.008 E0.23247
G1 X135.627 Y73.008 E0.01522
G1 X130.372 Y67.753 E0.21094
G1 X130.372 Y68.289 E0.01522
G1 X135.091 Y73.008 E0.18941
G1 X134.555 Y73.008 E0.01522
G1 X130.372 Y68.826 E0.16788
G1 X130.372 Y69.362 E0.01522
G1 X134.018 Y73.008 E0.14635
G1 X133.482 Y73.008 E0.01522
G1 X130.372 Y69.898 E0.12482
G1 X130.372 Y70.435 E0.01522
G1 X132.945 Y73.008 E0.10328
G1 X132.409 Y73.008 E0.01522
G1 X130.372 Y70.971 E0.08175
G1 X130.372 Y71.508 E0.01522
G1 X131.873 Y73.008 E0.06022
M73 Q3 S29
G1 X131.336 Y73.008 E0.01522
G1 X130.372 Y72.044 E0.03869
G1 X130.372 Y72.580 E0.01522
G1 X130.970 Y73.178 E0.02397
; stop printing object Shape-Box id:0 copy 0
;LAYER_CHANGE
;Z:0.5
;HEIGHT:0.3
G1 Z0.500 F10800.000
; printing object Shape-Box id:0 copy 0
G1 X42.473 Y154.481
M204 S800
;TYPE:Perimeter
;WIDTH:0.5
G1 F918.233
G1 X42.473 Y136.053 E0.90116
