; generated by PrusaSlicer 2.3.0+linux-x64 on 2022-03-01 at 17:28:11 UTC


;
;

;
;
; 

; external perimeters extrusion width = 0.60mm
; perimeters extrusion width = 0.50mm
; infill extrusion width = 0.50mm
; solid infill extrusion width = 0.50mm
; top infill extrusion width = 0.45mm
; first layer extrusion width = 0.42mm

M73 P0 R30
M73 Q0 S30
M107
M190 S50 ; set bed temperature and wait for it to be reached
M104 S240 ; set temperature
;TYPE:Custom
START_PRINT EXTRUDER_TEMP=240 BED_EXTRUDER=50
M109 S240 ; set temperature and wait for it to be reached
G21 ; set units to millimeters
G90 ; use absolute coordinates
M83 ; use relative distances for extrusion
;LAYER_CHANGE
;Z:0.2
;HEIGHT:0.2
G1 Z0.200 F10800.000
G1 E-2.00000 F2100.000
G1 X126.388 Y52.933 F10800.000
G1 E2.00000 F1500.000
M204 S1000
;TYPE:Skirt
;WIDTH:0.42
G1 F1591.176
G1 X126.935 Y52.029 E0.02983
G1 X127.395 Y51.594 E0.01786
G1 X127.930 Y51.264 E0.01773
G1 X128.523 Y51.045 E0.01786
G1 X129.149 Y50.950 E0.01786
G1 X149.307 Y50.947 E0.56883
G1 X149.881 Y51.000 E0.01626
G1 X150.435 Y51.158 E0.01626
G1 X150.951 Y51.415 E0.01626
G1 X151.411 Y51.762 E0.01626
G1 X151.799 Y52.188 E0.01626
G1 X152.103 Y52.677 E0.01626
G1 X152.312 Y53.214 E0.01626
G1 X152.420 Y53.785 E0.01638
G1 X152.432 Y74.183 E0.57560
G1 X152.219 Y75.218 E0.02983
G1 X151.670 Y76.127 E0.02996
G1 X151.189 Y76.577 E0.01859
G1 X150.624 Y76.916 E0.01859
G1 X149.997 Y77.131 E0.01872
G1 X149.342 Y77.209 E0.01859
G1 X129.193 Y77.207 E0.56858
G1 X128.158 Y76.992 E0.02983
G1 X127.253 Y76.445 E0.02983
G1 X126.803 Y75.964 E0.01859
G1 X126.464 Y75.399 E0.01859
G1 X126.249 Y74.772 E0.01872
G1 X126.171 Y74.117 E0.01859
G1 X126.173 Y53.968 E0.56858
G1 X126.376 Y52.992 E0.02814
G1 X126.741 Y53.068 F10800.000
G1 F1591.176
G1 X127.233 Y52.261 E0.02667
G1 X127.640 Y51.882 E0.01571
G1 X128.112 Y51.594 E0.01559
G1 X128.636 Y51.405 E0.01571
G1 X129.187 Y51.326 E0.01571
G1 X149.307 Y51.324 E0.56775
G1 X150.308 Y51.514 E0.02876
G1 X151.168 Y52.052 E0.02864
G1 X151.775 Y52.865 E0.02864
G1 X152.047 Y53.848 E0.02876
G1 X152.055 Y74.164 E0.57330
G1 X151.864 Y75.091 E0.02671
G1 X151.372 Y75.895 E0.02659
G1 X150.948 Y76.286 E0.01628
G1 X150.452 Y76.581 E0.01628
G1 X149.905 Y76.765 E0.01628
G1 X149.332 Y76.832 E0.01628
G1 X129.216 Y76.831 E0.56764
G1 X128.290 Y76.639 E0.02671
G1 X127.485 Y76.147 E0.02659
G1 X127.094 Y75.723 E0.01628
G1 X126.800 Y75.227 E0.01628
G1 X126.615 Y74.680 E0.01628
G1 X126.548 Y74.107 E0.01628
G1 X126.550 Y53.992 E0.56764
G1 X126.729 Y53.126 E0.02494
;WIPE_START
G1 F8640.000
G1 X127.233 Y52.261 E-0.23131
G1 X127.640 Y51.882 E-0.12853
G1 X128.112 Y51.594 E-0.12759
G1 X128.636 Y51.405 E-0.12853
G1 X129.187 Y51.326 E-0.12853
G1 X134.191 Y51.325 E-1.15550
;WIPE_END
G1 E-0.10000 F2100.000
G1 X126.729 Y53.126 F10800.000
G1 X126.729 Y53.126
G1 X128.294 Y51.925
G1 E2.00000 F1500.000
G1 F1591.176
G1 X129.218 Y51.702 E0.02680
G1 X149.306 Y51.701 E0.56688
G1 X150.173 Y51.866 E0.02490
G1 X150.923 Y52.338 E0.02500
G1 X151.445 Y53.049 E0.02490
G1 X151.673 Y53.902 E0.02490
G1 X151.679 Y74.142 E0.57117
G1 X151.512 Y74.955 E0.02342
G1 X151.075 Y75.661 E0.02342
G1 X150.709 Y75.994 E0.01395
G1 X150.283 Y76.243 E0.01395
G1 X149.814 Y76.399 E0.01395
G1 X149.323 Y76.455 E0.01395
G1 X129.234 Y76.454 E0.56688
G1 X128.425 Y76.287 E0.02331
G1 X127.719 Y75.851 E0.02342
G1 X127.387 Y75.485 E0.01395
G1 X127.137 Y75.058 E0.01395
G1 X126.981 Y74.589 E0.01395
G1 X126.925 Y74.098 E0.01395
G1 X126.926 Y54.009 E0.56688
G1 X127.093 Y53.200 E0.02331
G1 X127.530 Y52.494 E0.02342
G1 X128.246 Y51.961 E0.02521
; printing object Shape-Box id:0 copy 0
;WIPE_START
G1 F8640.000
G1 X129.218 Y51.702 E-0.23208
G1 X136.441 Y51.702 E-1.66792
;WIPE_END
G1 E-0.10000 F2100.000
G1 X128.246 Y51.961 F10800.000
G1 X128.246 Y51.961
G1 X130.090 Y54.865
G1 E2.00000 F1500.000
;TYPE:Perimeter
G1 F1591.176
G1 X148.515 Y54.865 E0.51996
G1 X148.515 Y73.291 E0.51996
G1 X130.090 Y73.291 E0.51996
G1 X130.090 Y54.925 E0.51826
G1 X129.712 Y54.488 F10800.000
;TYPE:External perimeter
G1 F1591.176
G1 X148.892 Y54.488 E0.54124
G1 X148.892 Y73.668 E0.54124
G1 X129.712 Y73.668 E0.54124
M73 P1 R30
M73 Q1 S30
G1 X129.712 Y54.548 E0.53954
G1 X130.099 Y54.591 F10800.000
G1 E-2.00000 F2100.000
G1 X148.402 Y55.745 F10800.000
G1 E2.00000 F1500.000
;TYPE:Solid infill
;WIDTH:0.422206
G1 F1581.920
G1 X147.805 Y55.148 E0.02397
G1 X147.269 Y55.148 E0.01522
G1 X148.233 Y56.112 E0.03869
G1 X148.233 Y56.648 E0.01522
G1 X146.732 Y55.148 E0.06023
G1 X146.196 Y55.148 E0.01522
G1 X148.233 Y57.184 E0.08176
G1 X148.233 Y57.721 E0.01522
G1 X145.659 Y55.148 E0.10329
G1 X145.123 Y55.148 E0.01522
G1 X148.233 Y58.257 E0.12482
G1 X148.233 Y58.794 E0.01522
G1 X144.587 Y55.148 E0.14635
G1 X144.050 Y55.148 E0.01522
G1 X148.233 Y59.330 E0.16788
G1 X148.233 Y59.866 E0.01522
G1 X143.514 Y55.148 E0.18941
G1 X142.977 Y55.148 E0.01522
G1 X148.233 Y60.403 E0.21095
G1 X148.233 Y60.939 E0.01522
G1 X142.441 Y55.148 E0.23248
G1 X141.905 Y55.148 E0.01522
G1 X148.233 Y61.476 E0.25401
G1 X148.233 Y62.012 E0.01522
G1 X141.368 Y55.148 E0.27554
G1 X140.832 Y55.148 E0.01522
G1 X148.233 Y62.548 E0.29707
G1 X148.233 Y63.085 E0.01522
G1 X140.296 Y55.148 E0.31860
G1 X139.759 Y55.148 E0.01522
G1 X148.233 Y63.621 E0.34013
G1 X148.233 Y64.157 E0.01522
G1 X139.223 Y55.148 E0.36166
G1 X138.686 Y55.148 E0.01522
G1 X148.233 Y64.694 E0.38320
G1 X148.233 Y65.230 E0.01522
G1 X138.150 Y55.148 E0.40473
G1 X137.614 Y55.148 E0.01522
G1 X148.233 Y65.767 E0.42626
G1 X148.233 Y66.303 E0.01522
G1 X137.077 Y55.148 E0.44779
G1 X136.541 Y55.148 E0.01522
G1 X148.233 Y66.839 E0.46932
G1 X148.233 Y67.376 E0.01522
G1 X136.004 Y55.148 E0.49085
G1 X135.468 Y55.148 E0.01522
G1 X148.233 Y67.912 E0.51238
G1 X148.233 Y68.449 E0.01522
G1 X134.932 Y55.148 E0.53391
G1 X134.395 Y55.148 E0.01522
G1 X148.233 Y68.985 E0.55545
G1 X148.233 Y69.521 E0.01522
G1 X133.859 Y55.148 E0.57698
G1 X133.322 Y55.148 E0.01522
G1 X148.233 Y70.058 E0.59851
G1 X148.233 Y70.594 E0.01522
G1 X132.786 Y55.148 E0.62004
G1 X132.250 Y55.148 E0.01522
G1 X148.233 Y71.131 E0.64157
G1 X148.233 Y71.667 E0.01522
G1 X131.713 Y55.148 E0.66310
G1 X131.177 Y55.148 E0.01522
G1 X148.233 Y72.203 E0.68463
M73 Q2 S30
G1 X148.233 Y72.740 E0.01522
G1 X130.640 Y55.148 E0.70616
M73 P2 R30
G1 X130.372 Y55.148 E0.00761
G1 X130.372 Y55.416 E0.00761
G1 X147.964 Y73.008 E0.70616
G1 X147.428 Y73.008 E0.01522
G1 X130.372 Y55.952 E0.68463
G1 X130.372 Y56.489 E0.01522
G1 X146.892 Y73.008 E0.66310
G1 X146.355 Y73.008 E0.01522
G1 X130.372 Y57.025 E0.64157
G1 X130.372 Y57.561 E0.01522
G1 X145.819 Y73.008 E0.62004
G1 X145.282 Y73.008 E0.01522
G1 X130.372 Y58.098 E0.59850
G1 X130.372 Y58.634 E0.01522
G1 X144.746 Y73.008 E0.57697
G1 X144.210 Y73.008 E0.01522
G1 X130.372 Y59.171 E0.55544
G1 X130.372 Y59.707 E0.01522
G1 X143.673 Y73.008 E0.53391
M73 P2 R29
G1 X143.137 Y73.008 E0.01522
G1 X130.372 Y60.243 E0.51238
G1 X130.372 Y60.780 E0.01522
G1 X142.600 Y73.008 E0.49085
M73 Q2 S29
G1 X142.064 Y73.008 E0.01522
G1 X130.372 Y61.316 E0.46932
G1 X130.372 Y61.853 E0.01522
G1 X141.528 Y73.008 E0.44778
G1 X140.991 Y73.008 E0.01522
G1 X130.372 Y62.389 E0.42625
G1 X130.372 Y62.925 E0.01522
G1 X140.455 Y73.008 E0.40472
G1 X139.918 Y73.008 E0.01522
G1 X130.372 Y63.462 E0.38319
G1 X130.372 Y63.998 E0.01522
G1 X139.382 Y73.008 E0.36166
G1 X138.846 Y73.008 E0.01522
G1 X130.372 Y64.535 E0.34013
G1 X130.372 Y65.071 E0.01522
G1 X138.309 Y73.008 E0.31860
G1 X137.773 Y73.008 E0.01522
G1 X130.372 Y65.607 E0.29707
G1 X130.372 Y66.144 E0.01522
G1 X137.237 Y73.008 E0.27553
G1 X136.700 Y73.008 E0.01522
G1 X130.372 Y66.680 E0.25400
G1 X130.372 Y67.216 E0.01522
G1 X136.164 Y73.008 E0.23247
G1 X135.627 Y73.008 E0.01522
G1 X130.372 Y67.753 E0.21094
G1 X130.372 Y68.289 E0.01522
G1 X135.091 Y73.008 E0.18941
G1 X134.555 Y73.008 E0.01522
G1 X130.372 Y68.826 E0.16788
G1 X130.372 Y69.362 E0.01522
G1 X134.018 Y73.008 E0.14635
G1 X133.482 Y73.008 E0.01522
G1 X130.372 Y69.898 E0.12482
G1 X130.372 Y70.435 E0.01522
G1 X132.945 Y73.008 E0.10328
G1 X132.409 Y73.008 E0.01522
G1 X130.372 Y70.971 E0.08175
G1 X130.372 Y71.508 E0.01522
G1 X131.873 Y73.008 E0.06022
M73 Q3 S29
G1 X131.336 Y73.008 E0.01522
G1 X130.372 Y72.044 E0.03869
G1 X130.372 Y72.580 E0.01522
G1 X130.970 Y73.178 E0.02397
; stop printing object Shape-Box id:0 copy 0
;LAYER_CHANGE
;Z:0.5
;HEIGHT:0.3
G1 Z0.500 F10800.000
; printing object Shape-Box id:0 copy 0
G1 X130.088 Y73.292
M204 S800
;TYPE:Perimeter
;WIDTH:0.5
G1 F918.233
G1 X130.088 Y54.863 E0.90116
M73 P3 R29
G1 X148.517 Y54.863 E0.90116
G1 X148.517 Y73.292 E0.90116
G1 X130.148 Y73.292 E0.89822
M204 S1000
G1 X129.602 Y73.778 F10800.000
M204 S800
;TYPE:External perimeter
;WIDTH:0.6
G1 F746.799
G1 X129.602 Y54.378 E1.16642
G1 X149.002 Y54.378 E1.16642
G1 X149.002 Y73.778 E1.16642
G1 X129.662 Y73.778 E1.16282
M204 S1000
G1 X129.706 Y73.391 F10800.000
G1 E-2.00000 F2100.000
G1 X131.101 Y54.994 F10800.000
G1 E2.00000 F1500.000
;TYPE:Solid infill
;WIDTH:0.500892
G1 F916.357
G1 X130.415 Y55.680 E0.04756
G1 X130.415 Y56.298 E0.03025
G1 X131.522 Y55.190 E0.07676
G1 X132.140 Y55.190 E0.03025
G1 X130.415 Y56.915 E0.11953
G1 X130.415 Y57.532 E0.03025
G1 X132.757 Y55.190 E0.16231
G1 X133.374 Y55.190 E0.03025
G1 X130.415 Y58.150 E0.20509
G1 X130.415 Y58.767 E0.03025
G1 X133.992 Y55.190 E0.24787
G1 X134.609 Y55.190 E0.03025
G1 X130.415 Y59.384 E0.29064
G1 X130.415 Y60.002 E0.03025
G1 X135.226 Y55.190 E0.33342
G1 X135.844 Y55.190 E0.03025
G1 X130.415 Y60.619 E0.37620
G1 X130.415 Y61.236 E0.03025
G1 X136.461 Y55.190 E0.41898
G1 X137.078 Y55.190 E0.03025
G1 X130.415 Y61.854 E0.46176
G1 X130.415 Y62.471 E0.03025
G1 X137.696 Y55.190 E0.50453
G1 X138.313 Y55.190 E0.03025
G1 X130.415 Y63.088 E0.54731
G1 X130.415 Y63.706 E0.03025
G1 X138.930 Y55.190 E0.59009
M73 Q4 S29
G1 X139.548 Y55.190 E0.03025
G1 X130.415 Y64.323 E0.63287
M73 P4 R29
G1 X130.415 Y64.940 E0.03025
G1 X140.165 Y55.190 E0.67564
G1 X140.782 Y55.190 E0.03025
G1 X130.415 Y65.558 E0.71842
G1 X130.415 Y66.175 E0.03025
G1 X141.400 Y55.190 E0.76120
G1 X142.017 Y55.190 E0.03025
G1 X130.415 Y66.792 E0.80398
G1 X130.415 Y67.409 E0.03025
G1 X142.634 Y55.190 E0.84676
G1 X143.252 Y55.190 E0.03025
G1 X130.415 Y68.027 E0.88953
G1 X130.415 Y68.644 E0.03025
G1 X143.869 Y55.190 E0.93231
G1 X144.486 Y55.190 E0.03025
G1 X130.415 Y69.261 E0.97509
G1 X130.415 Y69.879 E0.03025
G1 X145.103 Y55.190 E1.01787
G1 X145.721 Y55.190 E0.03025
G1 X130.415 Y70.496 E1.06064
G1 X130.415 Y71.113 E0.03025
G1 X146.338 Y55.190 E1.10342
G1 X146.955 Y55.190 E0.03025
G1 X130.415 Y71.731 E1.14620
G1 X130.415 Y72.348 E0.03025
G1 X147.573 Y55.190 E1.18898
G1 X148.190 Y55.190 E0.03025
G1 X130.415 Y72.965 E1.23176
M73 P5 R29
M73 Q5 S29
G1 X131.032 Y72.965 E0.03025
G1 X148.190 Y55.807 E1.18898
G1 X148.190 Y56.425 E0.03025
G1 X131.649 Y72.965 E1.14621
G1 X132.267 Y72.965 E0.03025
G1 X148.190 Y57.042 E1.10343
G1 X148.190 Y57.659 E0.03025
G1 X132.884 Y72.965 E1.06065
G1 X133.501 Y72.965 E0.03025
G1 X148.190 Y58.277 E1.01787
G1 X148.190 Y58.894 E0.03025
G1 X134.119 Y72.965 E0.97510
G1 X134.736 Y72.965 E0.03025
G1 X148.190 Y59.511 E0.93232
G1 X148.190 Y60.129 E0.03025
G1 X135.353 Y72.965 E0.88954
G1 X135.971 Y72.965 E0.03025
G1 X148.190 Y60.746 E0.84676
M73 P5 R28
G1 X148.190 Y61.363 E0.03025
G1 X136.588 Y72.965 E0.80398
G1 X137.205 Y72.965 E0.03025
M73 Q5 S28
G1 X148.190 Y61.981 E0.76121
G1 X148.190 Y62.598 E0.03025
G1 X137.823 Y72.965 E0.71843
G1 X138.440 Y72.965 E0.03025
G1 X148.190 Y63.215 E0.67565
M73 Q6 S28
G1 X148.190 Y63.833 E0.03025
G1 X139.057 Y72.965 E0.63287
M73 P6 R28
G1 X139.675 Y72.965 E0.03025
G1 X148.190 Y64.450 E0.59010
G1 X148.190 Y65.067 E0.03025
G1 X140.292 Y72.965 E0.54732
G1 X140.909 Y72.965 E0.03025
G1 X148.190 Y65.684 E0.50454
G1 X148.190 Y66.302 E0.03025
G1 X141.527 Y72.965 E0.46176
G1 X142.144 Y72.965 E0.03025
G1 X148.190 Y66.919 E0.41898
G1 X148.190 Y67.536 E0.03025
G1 X142.761 Y72.965 E0.37621
G1 X143.378 Y72.965 E0.03025
G1 X148.190 Y68.154 E0.33343
G1 X148.190 Y68.771 E0.03025
G1 X143.996 Y72.965 E0.29065
G1 X144.613 Y72.965 E0.03025
G1 X148.190 Y69.388 E0.24787
G1 X148.190 Y70.006 E0.03025
G1 X145.230 Y72.965 E0.20510
G1 X145.848 Y72.965 E0.03025
G1 X148.190 Y70.623 E0.16232
G1 X148.190 Y71.240 E0.03025
G1 X146.465 Y72.965 E0.11954
G1 X147.082 Y72.965 E0.03025
G1 X148.190 Y71.858 E0.07676
G1 X148.190 Y72.475 E0.03025
G1 X147.504 Y73.161 E0.04757
; stop printing object Shape-Box id:0 copy 0
;LAYER_CHANGE
;Z:0.8
;HEIGHT:0.3
G1 Z0.800 F10800.000
; printing object Shape-Box id:0 copy 0
G1 E-2.00000 F2100.000
G1 X148.517 Y73.292 F10800.000
G1 E2.00000 F1500.000
M204 S800
;TYPE:Perimeter
;WIDTH:0.5
G1 F918.233
G1 X130.088 Y73.292 E0.90116
G1 X130.088 Y54.863 E0.90116
G1 X148.517 Y54.863 E0.90116
G1 X148.517 Y73.232 E0.89822
M204 S1000
G1 X149.002 Y73.778 F10800.000
M204 S800
;TYPE:External perimeter
;WIDTH:0.6
G1 F746.799
G1 X129.602 Y73.778 E1.16642
G1 X129.602 Y54.378 E1.16642
G1 X149.002 Y54.378 E1.16642
G1 X149.002 Y73.718 E1.16282
M204 S1000
M73 P7 R28
M73 Q7 S28
G1 X148.616 Y73.674 F10800.000
G1 E-2.00000 F2100.000
G1 X130.219 Y72.279 F10800.000
G1 E2.00000 F1500.000
;TYPE:Solid infill
;WIDTH:0.500892
G1 F916.357
G1 X130.905 Y72.965 E0.04756
G1 X131.522 Y72.965 E0.03025
G1 X130.415 Y71.858 E0.07676
G1 X130.415 Y71.240 E0.03025
G1 X132.140 Y72.965 E0.11953
G1 X132.757 Y72.965 E0.03025
G1 X130.415 Y70.623 E0.16231
G1 X130.415 Y70.006 E0.03025
G1 X133.374 Y72.965 E0.20509
G1 X133.992 Y72.965 E0.03025
G1 X130.415 Y69.388 E0.24787
G1 X130.415 Y68.771 E0.03025
G1 X134.609 Y72.965 E0.29064
G1 X135.226 Y72.965 E0.03025
G1 X130.415 Y68.154 E0.33342
G1 X130.415 Y67.537 E0.03025
G1 X135.844 Y72.965 E0.37620
G1 X136.461 Y72.965 E0.03025
G1 X130.415 Y66.919 E0.41898
G1 X130.415 Y66.302 E0.03025
G1 X137.078 Y72.965 E0.46176
G1 X137.696 Y72.965 E0.03025
G1 X130.415 Y65.685 E0.50453
G1 X130.415 Y65.067 E0.03025
G1 X138.313 Y72.965 E0.54731
G1 X138.930 Y72.965 E0.03025
G1 X130.415 Y64.450 E0.59009
G1 X130.415 Y63.833 E0.03025
G1 X139.548 Y72.965 E0.63287
G1 X140.165 Y72.965 E0.03025
G1 X130.415 Y63.215 E0.67564
G1 X130.415 Y62.598 E0.03025
G1 X140.782 Y72.965 E0.71842
G1 X141.400 Y72.965 E0.03025
G1 X130.415 Y61.981 E0.76120
G1 X130.415 Y61.363 E0.03025
G1 X142.017 Y72.965 E0.80398
G1 X142.634 Y72.965 E0.03025
G1 X130.415 Y60.746 E0.84676
G1 X130.415 Y60.129 E0.03025
G1 X143.252 Y72.965 E0.88953
G1 X143.869 Y72.965 E0.03025
G1 X130.415 Y59.511 E0.93231
G1 X130.415 Y58.894 E0.03025
G1 X144.486 Y72.965 E0.97509
G1 X145.103 Y72.965 E0.03025
G1 X130.415 Y58.277 E1.01787
M73 P8 R28
M73 Q8 S28
G1 X130.415 Y57.659 E0.03025
G1 X145.721 Y72.965 E1.06064
G1 X146.338 Y72.965 E0.03025
G1 X130.415 Y57.042 E1.10342
G1 X130.415 Y56.425 E0.03025
G1 X146.955 Y72.965 E1.14620
G1 X147.573 Y72.965 E0.03025
G1 X130.415 Y55.807 E1.18898
G1 X130.415 Y55.190 E0.03025
G1 X148.190 Y72.965 E1.23176
G1 X148.190 Y72.348 E0.03025
G1 X131.032 Y55.190 E1.18898
G1 X131.649 Y55.190 E0.03025
G1 X148.190 Y71.731 E1.14621
G1 X148.190 Y71.114 E0.03025
G1 X132.267 Y55.190 E1.10343
G1 X132.884 Y55.190 E0.03025
G1 X148.190 Y70.496 E1.06065
G1 X148.190 Y69.879 E0.03025
G1 X133.501 Y55.190 E1.01787
G1 X134.119 Y55.190 E0.03025
G1 X148.190 Y69.262 E0.97510
G1 X148.190 Y68.644 E0.03025
G1 X134.736 Y55.190 E0.93232
M73 P9 R28
M73 Q9 S28
G1 X135.353 Y55.190 E0.03025
G1 X148.190 Y68.027 E0.88954
M73 P9 R27
G1 X148.190 Y67.410 E0.03025
G1 X135.971 Y55.190 E0.84676
M73 Q9 S27
G1 X136.588 Y55.190 E0.03025
G1 X148.190 Y66.792 E0.80398
G1 X148.190 Y66.175 E0.03025
G1 X137.205 Y55.190 E0.76121
G1 X137.823 Y55.190 E0.03025
G1 X148.190 Y65.558 E0.71843
G1 X148.190 Y64.940 E0.03025
G1 X138.440 Y55.190 E0.67565
G1 X139.057 Y55.190 E0.03025
G1 X148.190 Y64.323 E0.63287
G1 X148.190 Y63.706 E0.03025
G1 X139.675 Y55.190 E0.59010
G1 X140.292 Y55.190 E0.03025
G1 X148.190 Y63.088 E0.54732
G1 X148.190 Y62.471 E0.03025
G1 X140.909 Y55.190 E0.50454
G1 X141.527 Y55.190 E0.03025
G1 X148.190 Y61.854 E0.46176
G1 X148.190 Y61.236 E0.03025
G1 X142.144 Y55.190 E0.41898
G1 X142.761 Y55.190 E0.03025
G1 X148.190 Y60.619 E0.37621
G1 X148.190 Y60.002 E0.03025
G1 X143.378 Y55.190 E0.33343
